dhis-2/dhis-support/dhis-support-system/src/main/resources/SVGs/rdt_result_no_test_outline.svg

<svg width="48" height="48" viewBox="0 0 48 48" fill="none" xmlns="http://www.w3.org/2000/svg">
<path fill-rule="evenodd" clip-rule="evenodd" d="M24.2066 4.00786C19.0955 3.95623 14.1586 5.86346 10.4098 9.33789L10.4018 9.33009L10.2168 9.50779L10.0288 9.68549L10.0388 9.69529C6.27613 13.3674 4.11081 18.3735 4.01139 23.6301C3.91198 28.8868 5.88647 33.9711 9.50758 37.7829C13.1329 41.5916 18.1124 43.8193 23.3681 43.9838C28.6237 44.1483 33.7328 42.2364 37.5892 38.6619L37.5972 38.6699L37.7822 38.4919L37.9702 38.3139L37.9602 38.3049C41.7228 34.6328 43.8881 29.6267 43.9875 24.37C44.0869 19.1134 42.1123 14.029 38.4912 10.2173C36.6465 8.27947 34.4318 6.73147 31.9781 5.66494C29.5244 4.59841 26.8817 4.03503 24.2064 4.00816L24.2066 4.00786ZM23.0896 4.54695C25.8802 4.41506 28.6665 4.88482 31.2595 5.92438C33.8526 6.96393 36.1918 8.54896 38.1184 10.572C41.6464 14.2846 43.5707 19.2371 43.4749 24.3578C43.379 29.4785 41.2708 34.3555 37.6064 37.9336L28.1815 28.0228H38.8154C41.0254 28.0228 42.8044 26.2408 42.8044 24.0308V23.9668C42.8044 21.7568 41.0254 19.9769 38.8154 19.9769H20.5266L10.7678 9.71499C14.1375 6.59377 18.5016 4.76338 23.0896 4.54695ZM10.3928 10.066L19.8176 19.9769H9.18378C6.97331 19.9769 5.19513 21.7568 5.19513 23.9668V24.0308C5.19513 26.2408 6.97331 28.0228 9.18338 28.0228H27.4722L37.231 38.2846C33.4743 41.7648 28.4984 43.626 23.3799 43.4656C18.2614 43.3053 13.4119 41.1362 9.88037 37.4276C6.35238 33.715 4.42811 28.7625 4.52393 23.6418C4.61975 18.5211 6.72795 13.6441 10.3924 10.066H10.3928ZM9.65017 20.4629H20.281L21.496 21.7398H9.47318C8.26819 21.7398 7.299 22.7088 7.299 23.9118C7.299 25.1148 8.26819 26.0838 9.47288 26.0838H25.6267L27.0117 27.5388H9.64987C7.4402 27.5388 5.66012 25.9598 5.66012 23.9998C5.66012 22.0398 7.4402 20.4629 9.65027 20.4629H9.65017ZM20.99 20.4629H38.3238C40.5338 20.4629 42.3118 22.0398 42.3118 23.9998C42.3118 25.9598 40.5338 27.5388 38.3238 27.5388H27.7209L26.336 26.0838H28.2969C29.5009 26.0838 30.4729 25.1148 30.4729 23.9118C30.4729 22.7088 29.5009 21.7398 28.2969 21.7398H22.205L20.99 20.4629ZM38.8378 21.4788C38.1725 21.479 37.5346 21.7434 37.0642 22.2139C36.5939 22.6845 36.3297 23.3225 36.3298 23.9878C36.33 24.6529 36.5943 25.2907 37.0646 25.761C37.5349 26.2313 38.1727 26.4956 38.8378 26.4958C39.1673 26.496 39.4936 26.4312 39.7981 26.3053C40.1026 26.1793 40.3792 25.9946 40.6123 25.7617C40.8454 25.5288 41.0303 25.2523 41.1565 24.9479C41.2827 24.6436 41.3477 24.3173 41.3478 23.9878C41.3478 23.6582 41.2829 23.3319 41.1568 23.0274C41.0307 22.7229 40.8458 22.4462 40.6127 22.2132C40.3796 21.9802 40.1029 21.7954 39.7983 21.6694C39.4938 21.5434 39.1674 21.4787 38.8378 21.4788ZM38.8378 21.9648C39.1036 21.9647 39.3668 22.0169 39.6125 22.1185C39.8581 22.22 40.0813 22.369 40.2693 22.5569C40.4574 22.7447 40.6066 22.9678 40.7084 23.2133C40.8102 23.4588 40.8627 23.722 40.8628 23.9878C40.8628 24.2537 40.8104 24.517 40.7087 24.7626C40.6069 25.0082 40.4577 25.2314 40.2697 25.4194C40.0816 25.6073 39.8584 25.7564 39.6127 25.8581C39.367 25.9597 39.1037 26.0119 38.8378 26.0118C38.572 26.0118 38.3088 25.9595 38.0632 25.8578C37.8177 25.7561 37.5945 25.607 37.4066 25.419C37.2186 25.2311 37.0696 25.008 36.9678 24.7624C36.8661 24.5168 36.8138 24.2536 36.8138 23.9878C36.814 23.4512 37.0274 22.9366 37.4069 22.5572C37.7865 22.1779 38.3012 21.9648 38.8378 21.9648ZM9.47118 22.2188H21.951L25.164 25.5978H9.47118C8.53559 25.5978 7.7795 24.8428 7.7795 23.9078C7.7795 22.9728 8.53559 22.2188 9.47088 22.2188H9.47118ZM22.66 22.2188H28.2889C29.2239 22.2188 29.9799 22.9728 29.9799 23.9078C29.9799 24.8428 29.2239 25.5978 28.2889 25.5978H25.875L22.66 22.2188ZM33.4609 22.2288C33.2289 22.2288 32.9992 22.2746 32.7849 22.3634C32.5705 22.4522 32.3758 22.5824 32.2118 22.7465C32.0478 22.9105 31.9178 23.1053 31.8291 23.3197C31.7404 23.5341 31.6948 23.7638 31.6949 23.9958C31.6949 24.4642 31.881 24.9133 32.2122 25.2445C32.5433 25.5757 32.9925 25.7618 33.4609 25.7618C33.693 25.762 33.9228 25.7165 34.1373 25.6279C34.3518 25.5393 34.5467 25.4092 34.7109 25.2452C34.8751 25.0812 35.0053 24.8864 35.0942 24.6721C35.1831 24.4577 35.2288 24.2279 35.2289 23.9958C35.229 23.7636 35.1833 23.5337 35.0945 23.3192C35.0057 23.1047 34.8754 22.9099 34.7112 22.7457C34.547 22.5816 34.3521 22.4515 34.1375 22.3628C33.923 22.2741 33.693 22.2286 33.4609 22.2288ZM33.4609 22.7068C33.6302 22.7067 33.7978 22.74 33.9543 22.8047C34.1107 22.8695 34.2528 22.9644 34.3726 23.0841C34.4923 23.2038 34.5872 23.346 34.652 23.5024C34.7167 23.6588 34.75 23.8265 34.7499 23.9958C34.7495 24.3374 34.6136 24.6649 34.3719 24.9062C34.1301 25.1475 33.8025 25.283 33.4609 25.2828C33.1196 25.2825 32.7925 25.1468 32.5512 24.9055C32.3099 24.6642 32.1742 24.337 32.1739 23.9958C32.1737 23.6542 32.3091 23.3266 32.5505 23.0848C32.7918 22.8431 33.1193 22.7071 33.4609 22.7068Z" fill="#333333"/>
</svg>

<?xml version="1.0" encoding="UTF-8" standalone="no"?>
<!-- Created with Inkscape (http://www.inkscape.org/) -->
<svg id="svg8" xmlns:rdf="http://www.w3.org/1999/02/22-rdf-syntax-ns#" xmlns="http://www.w3.org/2000/svg" xmlns:osb="http://www.openswatchbook.org/uri/2009/osb" height="48" width="48" version="1.1" enable-background="new" xmlns:cc="http://creativecommons.org/ns#" viewBox="0 0 12.7 12.7" xmlns:dc="http://purl.org/dc/elements/1.1/">
 <title id="title4753">UIO-icon</title>
 <metadata id="metadata5">
  <rdf:RDF>
   <cc:Work rdf:about="">
    <dc:format>image/svg+xml</dc:format>
    <dc:type rdf:resource="http://purl.org/dc/dcmitype/StillImage"/>
    <dc:title>UIO-icon</dc:title>
    <dc:creator>
     <cc:Agent>
      <dc:title>Joaquín Urbano</dc:title>
     </cc:Agent>
    </dc:creator>
    <dc:rights>
     <cc:Agent>
      <dc:title>GPL</dc:title>
     </cc:Agent>
    </dc:rights>
   </cc:Work>
  </rdf:RDF>
 </metadata>
 <g id="layer1" transform="translate(0,-284.3)" fill="#333">
  <path id="rect1007" d="m24.207 4.0078a20 20 0 0 0 -13.797 5.3301l-0.008-0.0078-0.185 0.1777-0.188 0.1777 0.01 0.0098a20 20 0 0 0 -0.5312 28.088 20 20 0 0 0 28.082 0.879l0.008 0.008 0.185-0.178 0.188-0.178-0.01-0.009a20 20 0 0 0 0.531 -28.088 20 20 0 0 0 -14.285 -6.2092zm-1.117 0.5391a19.484 19.484 0 0 1 15.029 6.0251 19.484 19.484 0 0 1 -0.512 27.362l-9.425-9.911h10.634c2.21 0 3.989-1.782 3.989-3.992v-0.064c0-2.21-1.779-3.99-3.989-3.99h-18.289l-9.759-10.262a19.484 19.484 0 0 1 12.322 -5.1681zm-12.697 5.5191l9.425 9.911h-10.634c-2.2105 0-3.9887 1.78-3.9887 3.99v0.064c0 2.21 1.7782 3.992 3.9883 3.992h18.289l9.759 10.262a19.484 19.484 0 0 1 -27.351 -0.857 19.484 19.484 0 0 1 0.512 -27.362zm-0.7426 10.397h10.631l1.215 1.277h-12.023c-1.205 0-2.1742 0.969-2.1742 2.172s0.9692 2.172 2.1739 2.172h16.154l1.385 1.455h-17.362c-2.2097 0-3.9898-1.579-3.9898-3.539s1.7801-3.537 3.9902-3.537zm11.34 0h17.334c2.21 0 3.988 1.577 3.988 3.537s-1.778 3.539-3.988 3.539h-10.603l-1.385-1.455h1.961c1.204 0 2.176-0.969 2.176-2.172s-0.972-2.172-2.176-2.172h-6.092l-1.215-1.277zm17.848 1.016a2.5086 2.5086 0 0 0 -2.508 2.509 2.5086 2.5086 0 0 0 2.508 2.508 2.5086 2.5086 0 0 0 2.51 -2.508 2.5086 2.5086 0 0 0 -2.51 -2.509zm0 0.486a2.0238 2.0238 0 0 1 2.025 2.023 2.0238 2.0238 0 0 1 -2.025 2.024 2.0238 2.0238 0 0 1 -2.024 -2.024 2.0238 2.0238 0 0 1 2.024 -2.023zm-29.367 0.254h12.48l3.213 3.379h-15.693c-0.9356 0-1.6917-0.755-1.6917-1.69s0.7561-1.689 1.6914-1.689zm13.189 0h5.629c0.935 0 1.691 0.754 1.691 1.689s-0.756 1.69-1.691 1.69h-2.414l-3.215-3.379zm10.801 0.01a1.7661 1.7661 0 0 0 -1.766 1.767 1.7661 1.7661 0 0 0 1.766 1.766 1.7661 1.7661 0 0 0 1.768 -1.766 1.7661 1.7661 0 0 0 -1.768 -1.767zm0 0.478a1.2882 1.2882 0 0 1 1.289 1.289 1.2882 1.2882 0 0 1 -1.289 1.287 1.2882 1.2882 0 0 1 -1.287 -1.287 1.2882 1.2882 0 0 1 1.287 -1.289z" fill-rule="evenodd" transform="matrix(.26458 0 0 .26458 0 284.3)"/>
 </g>
</svg>
